X:1
T:Worship (Haydn), 77.87 D
T:Worship (Haydn), 77.87 D
T:Johann Michael Haydn (1737–1806)
T:Public Domain Courtesy of the Cyber Hymnal™
C:Johann Michael Haydn (1737–1806)
Z:Public Domain
Z:Courtesy of the Cyber Hymnal™
%%score ( 1 2 ) ( 3 4 )
L:1/8
Q:1/4=110
M:4/4
K:G
V:1 treble 
V:2 treble 
V:3 bass 
V:4 bass 
V:1
 D2 | [DG]2 [DF]2 [DA]2 [DG]2 | ([GB]3 [FA]) G2 [DG]2 | [FA]2 [GB]2 [Ec]2 [EA]2 | [DG]4 [DF]2 D2 | %5
 [DG]2 [DF]2 [DA]2 [DG]2 | [^DB]3 [DA] [EG]2 [GB]2 | A2 [Fd]2 [Ee]2 [E^c]2 | [Ge]4 [Fd]2 d2 | %9
 [Fc]2 [GB]2 [EA]2 [DG]2 | ([DF]3 [EG]) [FA]2 [EB]2 | [Ec]2 [Dc]2 [DB]2 [Ec]2 | [DB]4 [DA]2 D2 | %13
 [DG]2 [CF]2 [DA]2 [DG]2 | [FB]3 [FA] G2 G2 | [EA]2 [Ac]2 [GB]2 [FA]2 | [FA]4 G2 |] %17
V:2
 D2 | x8 | x4 G2 x2 | x8 | x6 D2 | x8 | x8 | A2 x6 | x6 (DE) | x8 | x8 | x8 | x6 D2 | x8 | %14
 x4 G2 G2 | x8 | x4 G2 |] %17
V:3
 [G,B,]2 | [G,B,]2 [A,C]2 [F,C]2 [G,B,]2 | (D3 C) [G,B,]2 [G,B,]2 | D2 [B,,D]2 [A,,C]2 [C,C]2 | %4
 [D,B,]4 [D,A,]2 F,2 | [B,,G,]2 [D,A,]2 [F,C]2 [G,B,]2 | [F,B,]3 [B,,B,] [E,B,]2 [E,^C]2 | %7
 [F,D]2 [B,D]2 [G,B,]2 A,2 | [D,A,]4 [D,A,]2 (F,G,) | [D,A,]2 [D,B,]2 [D,C]2 [D,B,]2 | %10
 (A,3 G,) [D,F,]2 [D,^G,]2 | [C,A,]2 [D,F,]2 [G,,G,]2 [C,G,]2 | [D,G,]4 [D,F,]2 F,2 | %13
 [B,,G,]2 [D,A,]2 [F,C]2 [G,B,]2 | [D,D]3 [D,C] [E,B,]2 [B,,D]2 | [C,C]2 [A,,E]2 [D,D]2 [D,C]2 | %16
 [G,C]4 [G,B,]2 |] %17
V:4
 x2 | x8 | D,4 x4 | (D,C,) x6 | x6 (D,C,) | x8 | x8 | x6 A,2 | x6 D,2 | x8 | D,4 x4 | x8 | %12
 x6 (D,C,) | x8 | x8 | x8 | x6 |] %17

